X:1
T:Title
%%score { ( 1 4 6 ) | ( 2 3 5 ) }
L:1/8
M:4/4
K:Eb
V:1 treble nm="Grand Piano"
V:4 treble 
V:6 treble 
V:2 bass 
V:3 bass 
V:5 bass 
V:1
 z4 z2[Q:1/4=110] C2 | [EG]2 [EG]2 [FA]2 B2 | [FA]4 z4 | c2 c2 =B2 A2 | GAGF =E2 F2 | F2 F2 GF F2 | %6
 GFGF EDEF | G2 G2 D2 F2 | EFED C2 C2 | [EG]2 [EG]2 [FA]2 B2 | [FA]4 z4 | c2 c2 =B2 A2 | %12
 GAGF =E2 F2 | F2 F2 GF F2 | GFGF EDEF | G2 G2 D2 F2 | EFED C2 GG | c2 c=B c2 [Fd]2 | %18
 z2 z A z2 z G | B2 B2 A2 AB | GAGF G2 GG | c2 c=B c2 [Fd]2 | z2 z A z2 z G | B2 B2 A2 AB | %24
 GAGF G2 G2 | A2 G2 F2 =E2 | [DF]4[K:bass][K:treble] z4 | [EG]2 G2 D2 FF | E4 z4 | E2 C2 D2 ED | %30
 C6 z2 |] %31
V:2
 z8 | [C,G,]4 z2 G2 | z2 F,2 [C,E,G,]4 | [C,E,G,]4 [=B,,F,G,]4 | G,A,G,F, [C,F,A,C]4 | %5
 A,2 A,2 G,F, F,2 | z4 C4 | [C,E,G,C]4 [=B,,F,G,=B,]4 | [C,C]4 z4 | [C,G,]4 z2 G2 | %10
 z2 F,2 [C,E,G,]4 | [C,E,G,]4 [=B,,F,G,]4 | G,A,G,F, [C,F,A,C]4 | A,2 A,2 G,F, F,2 | z4 C4 | %15
 [C,E,G,C]4 [=B,,F,G,=B,]4 | [C,C]4 z4 | z4 [EG]2 [C,F,A,]2 | z2 z[K:treble] F z2[K:bass] z E | %19
 [C,F,A,C]4 [C,F,A,C]4 | .G,2 z2 z4 | C,,2 z2 [EG]2 [C,F,A,]2 | z4[K:treble] E4[K:bass] | %23
 [C,F,A,C]4 [C,F,A,C]4 | G,A,G,F, [C,E,G,C]4 | C4 C4 | z2 D,4 z D | z2 [E,G,C]2 =B,2 B,2 | %28
 C2- [E,-C]2 E,2 [E,G,]2 | C2 z2 [=B,,F,G,=B,]4 | [C,E,G,]6 z2 |] %31
V:3
 x8 | z4 [C,F,]4 | C,4 z4 | x8 | [C,E,C]4 z4 | [C,C]8 | E,F,G,A, G,F,G,A, | x8 | %8
 z2 [E,G,]2 [C,E,G,]4 | z4 [C,F,]4 | C,4 z4 | x8 | [C,E,C]4 z4 | [C,C]8 | E,F,G,A, G,F,G,A, | x8 | %16
 z2 [E,G,]2 [C,E,G,]4 | z2 [C,E,G,]4 z2 | C,,4[K:treble] E4[K:bass] | x8 | %20
 [C,E,C]-[C,-E,-A,C-][C,-E,-G,C-][C,E,F,C] [C,E,G,C]4 | z2 [C,E,G,]4 z2 | %22
 C,,2 z[K:treble] F z2[K:bass] z E | x8 | [C,E,C]4 z4 | [C,F,A,]8 | z4 z2 [D,F,G,]2 | %27
 C,4 [=B,,F,G,]4 | C,8 | [C,E,G,]4 z4 | x8 |] %31
V:4
 x8 | x8 | z2 A,2 [EG]2 [EG]2 | E4 D4 | x8 | x8 | x8 | x8 | x8 | x8 | z2 A,2 [EG]2 [EG]2 | E4 D4 | %12
 x8 | x8 | x8 | x8 | x8 | [EG]4 z4 | [EGc]4 G4 | x8 | x8 | [EG]4 z4 | [EGc]4 G4 | x8 | x8 | x8 | %26
 z2[K:bass] z E[K:treble] D2 EF | x8 | z2 z D C2 CD | x8 | x8 |] %31
V:5
 x8 | x8 | x8 | x8 | x8 | x8 | [C,-C]4 C,4 | x8 | x8 | x8 | x8 | x8 | x8 | x8 | [C,-C]4 C,4 | x8 | %16
 x8 | C,,4 z4 | z2 C,4[K:treble][K:bass] [C,E,]2 | x8 | x8 | x8 | %22
 z2 C,4[K:treble][K:bass] [C,E,]2 | x8 | x8 | x8 | =B,,8 | x8 | x8 | x8 | x8 |] %31
V:6
 x8 | x8 | x8 | x8 | x8 | x8 | x8 | x8 | x8 | x8 | x8 | x8 | x8 | x8 | x8 | x8 | x8 | x8 | %18
 z2 [E,G,]4 G,2 | x8 | x8 | x8 | z2 [E,G,]4 G,2 | x8 | x8 | x8 | z2[K:bass] [F,G,]4[K:treble] z2 | %27
 x8 | z2 G,4 z2 | x8 | x8 |] %31

